X:1
T:Plooman Laddies
M:3/2
L:1/4
K:F
 C| C F F2 E F| G A B3 B/2B/2| A B| c2 c c| A F D2 C3/2 C/2| C F F2 E F|\
 G A B3 B| A B c2 c c| B G| F3||
